style-guide/assets/wds-icons-eye-crossed.svg

<svg xmlns="http://www.w3.org/2000/svg" xmlns:xlink="http://www.w3.org/1999/xlink" width="24" height="24" viewBox="0 0 24 24">
  <defs>
    <path id="eye-off-a" d="M18.204,16.78925 L14.707,13.29325 C14.895,12.90025 15,12.46325 15,12.00025 C15,10.34625 13.655,9.00025 12,9.00025 C11.538,9.00025 11.1,9.10525 10.707,9.29325 L7.59,6.17625 C8.947,5.55825 10.446,5.21925 12,5.21925 C16.4,5.21925 20.347,7.93025 21.934,12.00025 C21.168,13.96325 19.854,15.61025 18.204,16.78925 M12,18.78125 C7.601,18.78125 3.654,16.07025 2.067,12.00025 C2.832,10.03725 4.147,8.39025 5.797,7.21125 L9.293,10.70725 C9.105,11.10025 9,11.53725 9,12.00025 C9,13.65425 10.346,15.00025 12,15.00025 C12.463,15.00025 12.901,14.89425 13.293,14.70725 L16.411,17.82425 C15.054,18.44225 13.555,18.78125 12,18.78125 M23.944,12.33225 C24.019,12.11725 24.019,11.88325 23.944,11.66825 C22.165,6.61525 17.365,3.21925 12,3.21925 C9.896,3.21925 7.879,3.74225 6.096,4.68225 L2.707,1.29325 C2.317,0.90225 1.684,0.90225 1.293,1.29325 C0.903,1.68425 0.903,2.31625 1.293,2.70725 L4.367,5.78025 C2.425,7.24625 0.901,9.27025 0.057,11.66825 C-0.019,11.88325 -0.019,12.11725 0.057,12.33225 C1.836,17.38525 6.636,20.78125 12,20.78125 C14.105,20.78125 16.122,20.25825 17.905,19.31825 L21.293,22.70725 C21.489,22.90225 21.745,23.00025 22,23.00025 C22.256,23.00025 22.512,22.90225 22.707,22.70725 C23.098,22.31625 23.098,21.68425 22.707,21.29325 L19.634,18.22025 C21.576,16.75425 23.1,14.72925 23.944,12.33225"/>
  </defs>
  <use fill-rule="evenodd" xlink:href="#eye-off-a"/>
</svg>

<svg viewBox="0 0 24 24" xmlns="http://www.w3.org/2000/svg">
  <path d="M18.204 16.79l-3.497-3.497a3.003 3.003 0 0 0-4-4L7.59 6.176A10.632 10.632 0 0 1 12 5.22c4.4 0 8.347 2.711 9.934 6.781a10.636 10.636 0 0 1-3.73 4.79M12 18.78A10.674 10.674 0 0 1 2.067 12a10.63 10.63 0 0 1 3.73-4.79l3.496 3.496a3.004 3.004 0 0 0 4 4l3.118 3.117A10.633 10.633 0 0 1 12 18.78m11.944-6.449a1.008 1.008 0 0 0 0-.664A12.677 12.677 0 0 0 12 3.22c-2.104 0-4.121.523-5.904 1.463l-3.389-3.39a.999.999 0 1 0-1.414 1.414L4.367 5.78a12.623 12.623 0 0 0-4.31 5.888.995.995 0 0 0 0 .664A12.676 12.676 0 0 0 12 20.782c2.105 0 4.122-.524 5.905-1.464l3.388 3.39a1 1 0 0 0 1.414-1.415l-3.073-3.073a12.628 12.628 0 0 0 4.31-5.888"/>
</svg>
